icons/1_Primary/Icedrive.svg

<svg xmlns="http://www.w3.org/2000/svg" viewBox="0 0 1024 1024">
   <circle cx="512" cy="512" r="512" style="fill:#1f4fd0"/>
   <path d="M476.88 258.41C532 250.77 589.62 261.39 638 289c54.28 30.53 97 81.45 116.52 140.69 16.71 48.8 17.87 102.62 4 152.26a256.48 256.48 0 0 1-96 137.42c-42.36 31-94.6 48.48-147.1 48.59a252.5 252.5 0 0 1-157.68-51.19c-50.49-37.72-86-94.87-97.39-156.9-11.4-60.07-.78-124.17 30.4-176.86 38.62-67.18 109.25-114.78 186.13-124.6m-76.49 135.95c-20.82-11.19-48.29 2.33-53.85 24.87-14.89 9.82-29.46 20.5-41.72 33.51-14.86 49.8-10.3 105 12.21 151.83C340.53 654.71 384.18 695 436 714.51a215.88 215.88 0 0 0 121.46 9.23 96.58 96.58 0 0 1-12.15-22.89c-14.38-38.71 3.78-87 41.77-104.39 19-11.21 41.77-3.89 62.19-9.39 26-6.25 47.7-25 61.65-47.3 5.37-7.62.86-17.41-4.88-23.37-23-23-53.82-35.25-82.42-49.34-11.78-14.41-13-37.05-29.89-47.73-56.26-37-129.37-44.72-193.3-25m127.89 59.32c-6.17 3.38-13.84 11.27-7.81 18.32 15 0 30 1.74 45 .38 6-1.5 13.15-8.08 8.37-14.38-6.2-2.82-13.09-3.41-19.61-5.18-8.42-2.15-18.06-4.05-25.94.86" style="fill:#fff"/>
</svg>

<svg width="1024" height="1024" viewBox="0 0 1024 1024" fill="none" xmlns="http://www.w3.org/2000/svg">
<g clip-path="url(#clip0_2_2478)">
<path d="M512 1024C794.77 1024 1024 794.77 1024 512C1024 229.23 794.77 0 512 0C229.23 0 0 229.23 0 512C0 794.77 229.23 1024 512 1024Z" fill="#54688C"/>
<path d="M476.88 258.41C532 250.77 589.62 261.39 638 289C692.28 319.53 735 370.45 754.52 429.69C771.23 478.49 772.39 532.31 758.52 581.95C742.815 637.216 709.008 685.609 662.52 719.37C620.16 750.37 567.92 767.85 515.42 767.96C458.596 769.129 403.04 751.093 357.74 716.77C307.25 679.05 271.74 621.9 260.35 559.87C248.95 499.8 259.57 435.7 290.75 383.01C329.37 315.83 400 268.23 476.88 258.41ZM400.39 394.36C379.57 383.17 352.1 396.69 346.54 419.23C331.65 429.05 317.08 439.73 304.82 452.74C289.96 502.54 294.52 557.74 317.03 604.57C340.53 654.71 384.18 695 436 714.51C474.761 729.182 516.926 732.386 557.46 723.74C552.4 716.691 548.313 708.991 545.31 700.85C530.93 662.14 549.09 613.85 587.08 596.46C606.08 585.25 628.85 592.57 649.27 587.07C675.27 580.82 696.97 562.07 710.92 539.77C716.29 532.15 711.78 522.36 706.04 516.4C683.04 493.4 652.22 481.15 623.62 467.06C611.84 452.65 610.62 430.01 593.73 419.33C537.47 382.33 464.36 374.61 400.43 394.33M528.32 453.65C522.15 457.03 514.48 464.92 520.51 471.97C535.51 471.97 550.51 473.71 565.51 472.35C571.51 470.85 578.66 464.27 573.88 457.97C567.68 455.15 560.79 454.56 554.27 452.79C545.85 450.64 536.21 448.74 528.33 453.65" fill="white"/>
</g>
<defs>
<clipPath id="clip0_2_2478">
<rect width="1024" height="1024" fill="white"/>
</clipPath>
</defs>
</svg>
